public/icons/credit-return-lg.svg

<svg role="img" xmlns="http://www.w3.org/2000/svg" width="72" height="72" fill="none" viewBox="0 0 72 72" data-version="1.15.1">
  <path stroke="currentColor" stroke-linecap="round" stroke-linejoin="round" d="M64.7158 35.8048c0 15.8598-12.8569 28.7167-28.7166 28.7167-13.7328 0-25.2141-9.6396-28.0467-22.5214m56.7633-6.1953-5.2842 5.2842m5.2842-5.2842L70 41.089M7.2825 35.8048c0-15.8597 12.8569-28.7166 28.7167-28.7166 13.8711 0 25.4452 9.8348 28.1296 22.9119M7.2825 35.8048l-4.6623-4.6623m4.6623 4.6623 4.6623-4.6623"/>
  <path stroke="currentColor" stroke-linecap="round" stroke-linejoin="round" d="M27.5293 42.6455c.2642.4818.5595.948.9014 1.3831.6682.8703 1.4763 1.6473 2.3777 2.269.6061.3574 1.3054.5439 2.0048.575h6.3406c.6838-.0311 1.3676-.2176 1.9581-.575.9947-.6994 1.8805-1.523 2.642-2.471.3263-.5284.4973-1.15.4662-1.7717v-2.502c0-.9169-.6061-1.5541-1.8027-1.9271l-5.6103-1.3676-1.9581-.4973-4.6622-1.1966c-1.3987-.202-2.4244-1.3987-2.3933-2.8129v-1.927c-.0311-.6217.1399-1.2433.4662-1.7717.7615-.9635 1.6629-1.8027 2.6575-2.5176.5905-.3574 1.2743-.5439 1.9581-.575h5.8123c.6838.0311 1.352.2331 1.9426.575.9169.6216 1.7095 1.3987 2.3933 2.2689.3419.4352.6371.9014.8858 1.3987m-7.6616-7.9102v29.2633"/>
</svg>

<svg role="img" width="72" height="72" viewBox="0 0 72 72" fill="none" xmlns="http://www.w3.org/2000/svg">
<path d="M64.7158 35.8048C64.7158 51.6646 51.8589 64.5215 35.9992 64.5215C21.9445 64.5215 10.2481 54.4247 7.76767 41.089M64.7158 35.8048L59.4316 41.089M64.7158 35.8048L70 41.089M7.28253 35.8048C7.28253 19.9451 20.1394 7.0882 35.9992 7.0882C50.5035 7.0882 62.4964 17.8415 64.4403 31.8107M7.28253 35.8048L2.62024 31.1425M7.28253 35.8048L11.9448 31.1425" stroke="currentColor" stroke-linecap="round" stroke-linejoin="round"/>
<path d="M27.5293 42.6455C27.7935 43.1273 28.0888 43.5935 28.4307 44.0286C29.0989 44.8989 29.907 45.6759 30.8084 46.2976C31.4145 46.655 32.1138 46.8415 32.8132 46.8726H39.1538C39.8376 46.8415 40.5214 46.655 41.1119 46.2976C42.1066 45.5982 42.9924 44.7746 43.7539 43.8266C44.0802 43.2982 44.2512 42.6766 44.2201 42.0549V39.5529C44.2201 38.636 43.614 37.9988 42.4174 37.6258L36.8071 36.2582L34.849 35.7609L30.1868 34.5643C28.7881 34.3623 27.7624 33.1656 27.7935 31.7514V29.8244C27.7624 29.2027 27.9334 28.5811 28.2597 28.0527C29.0212 27.0892 29.9226 26.25 30.9172 25.5351C31.5077 25.1777 32.1915 24.9912 32.8753 24.9601H38.6876C39.3714 24.9912 40.0396 25.1932 40.6302 25.5351C41.5471 26.1567 42.3397 26.9338 43.0235 27.804C43.3654 28.2392 43.6606 28.7054 43.9093 29.2027" stroke="currentColor" stroke-linecap="round" stroke-linejoin="round"/>
<path d="M36.2477 21.2925V50.5558" stroke="currentColor" stroke-linecap="round" stroke-linejoin="round"/>
</svg>
